X:38
T:Miss Sackville’s Fancy.WM.038
M:C
L:1/8
Q:1/2=90
S:Wm.Mittell’s MS, New Romney,Kent,1799
R:.Country Dance
O:England
A:Kent
N:I described it as a Hornpipe in previous editions..CGP
Z:vmp.Chris Partington
K:D
A2FGA2dc|BGBe dcBA|defdB2ef|gefd dcBA|!
A2FGA2dc|BGBe dcBA|defd Bgfe|dfecd4:|!
|:dfed ecBA|efge fdAF|BGeG FAdF|EFGA GFED|!
dfed ecBA|efge gedc|dfA=c Bgfe|gdecd4:|

